X:1
T:Haec est vita
T:Haec est vita
T:Anonymous
T:Canon
T:Source : Collection of Catches, Canons & Glees---London---Longman & Broderip---1762-64. Editor : André Vierendeels (12/05/14).
T:-natural
C:Anonymous
%%score [ 1 2 3 ]
L:1/8
Q:1/4=120
M:4/4
K:C
V:1 treble-8 nm="Tenor 1" snm="T 1"
V:2 treble-8 nm="Tenor 2" snm="T 2"
V:3 treble-8 nm="Tenor 3" snm="T 3"
V:1
 A4 E2 G2 | F2 D2 E4 |: D2 d2 d2 ^c2 | dc BA G2 E2 | F2 G2 E4 | D2 d3 ^c/B/ c2 | d4 z2 G2 | %7
w: Haec est vi-|ta ae- ter-|na ut co- gnos-|cant, co- gnos- * cant te|so- lum De-|um ve- * * *|rum et|
 ^F2 G2 E4 | D2 d2 c2 B2 | dc BA G2 E2 | F2 G2 E4 | D2 d3 ^c/B/ c2 | dc BA G4 | F2 D2 E4 | D4 z4 | %15
w: quem mi- si-|sti Je- * sum|Chri- * * * stum et|quem mi- si-|sti Je- * * *|* * * * sum|Chri- stum. A-|men.|
 A4 E2 G2 |1 F2 D2 E4 :|2 z8 || z8 |] %19
w: Haec est vi-|ta ae- ter-|||
V:2
 z8 | A4 E2 G2 |: F2 D2 E4 | D2 d2 d2 ^c2 |"^-natural" dc BA G2 E2 | F2 G2 E4 | D2 d3 ^c/B/ c2 | %7
w: |Haec est vi-|ta ae- ter-|na ut co- gnos-|cant, co- gnos- * cant te|so- lum De-|um ve- * * *|
 d4 z2 G2 | ^F2 G2 E4 | D2 d2 c2 B2 | dc BA G2 E2 | F2 G2 E4 | D2 d3 ^c/B/ c2 | %13
w: rum et|quem mi- si-|sti Je- * sum|Chri- * * * stum et|quem mi- si-|sti Je- * * *|
"^-natural" dc BA G4 | F2 D2 E4 | D4 z4 |1 A4 E2 G2 :|2 D4 z4 || z8 |] %19
w: * * * * sum|Chri- stum. A-|men.|Haec est vi-|men.||
V:3
 z8 | z8 |: A4 E2 G2 | F2 D2 E4 | D2 d2 d2 ^c2 |"^-natural" dc BA G2 E2 | F2 G2 E4 | %7
w: ||Haec est vi-|ta ae- ter-|na ut co- gnos-|cant, co- gnos- * cant te|so- lum De-|
 D2 d3 ^c/B/ c2 | d4 z2 G2 | ^F2 G2 E4 | D2 d2 c2 B2 | dc BA G2 E2 | F2 G2 E4 | D2 d3 ^c/B/ c2 | %14
w: um ve- * * *|rum et|quem mi- si-|sti Je- * sum|Chri- * * * stum et|quem mi- si-|sti Je- * * *|
"^-natural" dc BA G4 | F2 D2 E4 |1 D4 z4 :|2 F2 D2 E4 || D8 |] %19
w: * * * * sum|Chri- stum. A-|men.|Chri- stum. A-|men.|

